X:1
T:Englewood, 86.86.88.86
T:Englewood, 86.86.88.86
T:Benjamin Carl Unseld, 1887
T:Public Domain Courtesy of the Cyber Hymnal™
C:Benjamin Carl Unseld, 1887
Z:Public Domain
Z:Courtesy of the Cyber Hymnal™
%%score ( 1 2 ) ( 3 4 )
L:1/8
Q:1/4=97
M:6/8
K:F
V:1 treble 
V:2 treble 
V:3 bass 
V:4 bass 
V:1
 [Ac][^G=B][Ac] [Ge]2 [Gd] | [Ac]2 [GB] [FA]3 | [FA][F^G][FA] [Ac]2 [=GB] | [EG]3- [EG]2 z | %4
 [EG][^D^F][EG] [=FA]2 G | (GA)[F=B] [Ec]3 | [^Fc][F=B][Fc] [Ge]2 [=Fd] | [Ec]3- [Ec]2 z | %8
 [Ac][GBc][FAc] (cc)[EGc] | (cc)[EGc] (ccc) | [Ac][GBc][FAc] | (cc)[EGc] | (cc)[Fc] (ccc) | %13
 [Ec][Ec][Ec] [F=B]3 | [GB][GB][GB] [FA]3 | [FG][FA][FB] [EA]2 [EG] | F3- F2 z |] %17
V:2
 x6 | x6 | x6 | x6 | x5 G | F2 x4 | x6 | x6 | x3 [EG]2 x | [FA]2 F3 x | x3 | [EG]2 x | [FA]2 E3 x | %13
 x6 | x6 | x6 | F3- F2 x |] %17
V:3
 [F,C][F,D][F,C] [F,=B,]2 [F,B,] | [F,C]2 [E,C] [F,C]3 | [F,C][F,=B,][F,C] [=B,,D]2 [B,,D] | %3
 [C,C]3- [C,C]2 z | [C,C][C,C][C,C] [F,C]2 [E,C] | (=B,C)[G,,D] [A,,C]3 | %6
 [A,D][A,D][A,D] (CA,)[G,=B,] | [C,C]3- [C,C]2 z | [F,C][F,C][F,C] [C,C]2 [C,C] | %9
 [F,C]2 [F,B,] [F,A,]3 | [F,C][F,C][F,C] | [C,C]2 [C,C] | [F,C]2 [F,A,] [C,G,]3 | %13
 [C,G,][C,G,][C,G,] [D,G,]3 | [E,C][E,C][E,C] [F,C]3 | [B,,D][A,,C][G,,D] [C,C]2 [C,B,] | %16
 [F,A,]3- [F,A,]2 z |] %17
V:4
 x6 | x6 | x6 | x6 | x6 | D,2 x4 | x3 G,2 x | x6 | x6 | x6 | x3 | x3 | x6 | x6 | x6 | x6 | x6 |] %17

